src/basic/900/u2190-left.svg

<svg width="9" height="8" viewBox="0 0 9 8" fill="none" xmlns="http://www.w3.org/2000/svg">
<path fill-rule="evenodd" clip-rule="evenodd" d="M1.5391,4.14641l2.5,-2.49997l0.70711,0.70712l-1.64647,1.64644h5.79291v1h-5.79286l1.64642,1.64642l-0.70711,0.7071l-2.5,-2.5l-0.35355,-0.35355z" fill="black"/>
</svg>

<svg width="9" height="8" viewBox="0 0 9 8" fill="none" xmlns="http://www.w3.org/2000/svg">
<path fill-rule="evenodd" clip-rule="evenodd" d="M1.5391 4.14641L4.0391 1.64644L4.74621 2.35356L3.09974 4H8.89265V5H3.09979L4.74621 6.64642L4.0391 7.35352L1.5391 4.85352L1.18555 4.49997L1.5391 4.14641Z" fill="black"/>
</svg>
